Origami/24x24/apps/mps.svg

<svg width="24" height="24" version="1" xmlns="http://www.w3.org/2000/svg">
 <path d="m12 2h-9c-0.554 0-1 0.446-1 1v9h10z" style="fill:#f7c73c"/>
 <path d="m12 2h9c0.554 0 1 0.446 1 1v9h-10z" style="fill:#21d789"/>
 <path d="m12 22h-9c-0.554 0-1-0.446-1-1v-9h10z" style="fill:#21d789"/>
 <path d="m12 22h9c0.554 0 1-0.446 1-1v-9h-10z" style="fill:#2086e7"/>
 <path d="m3 2c-0.554 0-1 0.446-1 1v0.5c0-0.554 0.446-1 1-1h18c0.554 0 1 0.446 1 1v-0.5c0-0.554-0.446-1-1-1z" style="fill:#ffffff;opacity:.2"/>
 <path d="m3 22.5c-0.554 0-1-0.446-1-1v-0.5c0 0.554 0.446 1 1 1h18c0.554 0 1-0.446 1-1v0.5c0 0.554-0.446 1-1 1z" style="opacity:.2"/>
 <rect x="5" y="5" width="14" height="14" style="fill:#3f3f3f"/>
 <path d="m7.5042927 15.99995h4.0000003" style="fill:none;opacity:.2;stroke-linecap:round;stroke:#000000"/>
 <path d="m7.5042927 15.5h4.0000003" style="fill:none;stroke-linecap:round;stroke:#ffffff"/>
 <path d="m9.5042927 11.999952v-4.000001m-3 0 1.5 1.999999 1.5-1.999999m-3 4v-4" style="fill:none;opacity:.2;stroke-linecap:round;stroke-linejoin:round;stroke-width:.99999994;stroke:#000000"/>
 <path d="m9.5042927 11.500002v-4.000001m-3 0 1.5 1.999999 1.5-1.999999m-3 4.000001v-4.000001" style="fill:none;stroke-linecap:round;stroke-linejoin:round;stroke-width:.99999994;stroke:#ffffff"/>
 <path d="m11.507074 9.99995s2.000002 0.23225 2.000002-0.9999985c0-1.2322505-2.000002-1.0000005-2.000002-1.0000005m4.9e-5 4.000049v-4" style="fill:none;opacity:.2;stroke-linecap:round;stroke-linejoin:bevel;stroke-width:.99999994;stroke:#000000"/>
 <path d="m11.507074 9.5s2.000002 0.23225 2.000002-0.9999985c0-1.2322505-2.000002-1.0000005-2.000002-1.0000005m4.9e-5 4.00005v-4.000001" style="fill:none;stroke-linecap:round;stroke-linejoin:bevel;stroke-width:.99999994;stroke:#ffffff"/>
 <path d="m15.503232 11.49995s0.252193 0.500484 1 0.500242c0.747806-2.4e-4 0.999999-0.500242 0.999999-1.000241 0-2.1071925-1.999999 0.105581-1.994009-1.9953525-6e-3 -0.5046485 0.235933-1.0046475 0.99401-1.0046475 0.758075 0 0.999942 0.499999 0.999942 0.499999" style="fill:none;opacity:.2;stroke-linecap:round;stroke-linejoin:round;stroke-width:.99999994;stroke:#000000"/>
 <path d="m15.503232 11s0.252193 0.500484 1 0.500242c0.747806-2.4e-4 0.999999-0.500242 0.999999-1.000241 0-2.1071925-1.999999 0.105581-1.994009-1.9953525-0.006044-0.5046485 0.235934-1.0046475 0.99401-1.0046475 0.758075 0 0.999942 0.499999 0.999942 0.499999" style="fill:none;stroke-linecap:round;stroke-linejoin:round;stroke-width:.99999994;stroke:#ffffff"/>
</svg>

<svg xmlns="http://www.w3.org/2000/svg" width="24" height="24" version="1">
 <path style="fill:#f7c73c" d="M 12,2 H 3 C 2.446,2 2,2.446 2,3 v 9 h 10 z"/>
 <path style="fill:#21d789" d="m 12,2 h 9 c 0.554,0 1,0.446 1,1 v 9 H 12 Z"/>
 <path style="fill:#21d789" d="M 12,22 H 3 C 2.446,22 2,21.554 2,21 v -9 h 10 z"/>
 <path style="fill:#2086e7" d="m 12,22 h 9 c 0.554,0 1,-0.446 1,-1 V 12 H 12 Z"/>
 <path style="opacity:0.2;fill:#ffffff" d="M 3,2 C 2.446,2 2,2.446 2,3 v 0.5 c 0,-0.554 0.446,-1 1,-1 h 18 c 0.554,0 1,0.446 1,1 V 3 C 22,2.446 21.554,2 21,2 Z"/>
 <path style="opacity:0.2" d="m 3,22.5 c -0.554,0 -1,-0.446 -1,-1 V 21 c 0,0.554 0.446,1 1,1 h 18 c 0.554,0 1,-0.446 1,-1 v 0.5 c 0,0.554 -0.446,1 -1,1 z"/>
 <rect style="fill:#3f3f3f" width="14" height="14" x="5" y="5"/>
 <path style="opacity:0.2;fill:none;stroke:#000000;stroke-linecap:round" d="M 7.5042927,15.99995 H 11.504293"/>
 <path style="fill:none;stroke:#ffffff;stroke-linecap:round" d="M 7.5042927,15.5 H 11.504293"/>
 <path style="opacity:0.2;fill:none;stroke:#000000;stroke-width:0.99999994;stroke-linecap:round;stroke-linejoin:round" d="M 9.5042927,11.999952 V 7.999951 m -3,0 1.5,1.999999 1.5,-1.999999 m -3,4 v -4"/>
 <path style="fill:none;stroke:#ffffff;stroke-width:0.99999994;stroke-linecap:round;stroke-linejoin:round" d="M 9.5042927,11.500002 V 7.500001 m -3,0 1.5,1.999999 1.5,-1.999999 m -3,4.000001 V 7.500001"/>
 <path style="opacity:0.2;fill:none;stroke:#000000;stroke-width:0.99999994;stroke-linecap:round;stroke-linejoin:bevel" d="m 11.507074,9.99995 c 0,0 2.000002,0.23225 2.000002,-0.9999985 0,-1.2322505 -2.000002,-1.0000005 -2.000002,-1.0000005 M 11.507123,12 V 8"/>
 <path style="fill:none;stroke:#ffffff;stroke-width:0.99999994;stroke-linecap:round;stroke-linejoin:bevel" d="m 11.507074,9.5 c 0,0 2.000002,0.23225 2.000002,-0.9999985 0,-1.2322505 -2.000002,-1.0000005 -2.000002,-1.0000005 m 4.9e-5,4.00005 V 7.50005"/>
 <path style="opacity:0.2;fill:none;stroke:#000000;stroke-width:0.99999994;stroke-linecap:round;stroke-linejoin:round" d="m 15.503232,11.49995 c 0,0 0.252193,0.500484 1,0.500242 0.747806,-2.4e-4 0.999999,-0.500242 0.999999,-1.000241 0,-2.1071925 -1.999999,0.105581 -1.994009,-1.9953525 -0.006,-0.5046485 0.235933,-1.0046475 0.99401,-1.0046475 0.758075,0 0.999942,0.499999 0.999942,0.499999"/>
 <path style="fill:none;stroke:#ffffff;stroke-width:0.99999994;stroke-linecap:round;stroke-linejoin:round" d="m 15.503232,11 c 0,0 0.252193,0.500484 1,0.500242 0.747806,-2.4e-4 0.999999,-0.500242 0.999999,-1.000241 0,-2.1071925 -1.999999,0.105581 -1.994009,-1.9953525 C 15.503178,8 15.745156,7.500001 16.503232,7.500001 17.261307,7.500001 17.503174,8 17.503174,8"/>
</svg>
